!!!!SEGMENT: pl-wn--mus-iii-161-653_zelenski-wladyslaw--tedy-tedy-lecial-ptaszek-op-4.krn
!!!cenid: 18xx:3669
!!!COM: Żeleński, Władysław
!!!COM-rismID: pe41024455
!!!CDT: 1837/07/06-1921/01/23
!!!CNT: Polish
!!!OTL: Tędy, tędy leciał ptaszek op. 4
!!!PDT:
!!!AGN:
!!!SMS-siglum: PL-Wn
!!!SMS-shelfmark: Mus.III.161.653
!!!SMS-shelfwork: W
!!!SMS-variant:
!!!SMS-altvar:
!!!NIFC-rismSourceID:
!!!NIFC-rismChildID:
!!!NIFC-islandoraID: none
!!!URL-pdf-islandora:
!!!URL-scan: https://polona.pl/item/tedy-tedy-lecial-ptaszek-duo-na-sopr-i-contr-op-4,MTA4MDQxMDMz/0 @EN{Scan on Polona} @PL{Skany w portalu Polona}
!!!IIIF: https://polona.pl/iiif/item/MTA4MDQxMDMz/manifest.json
!!!ONB-nifc:
!!!AIN: 4 empty
!!!key: A
**kern	**kern	**dynam	**kern	**text	**dynam	**kern	**text	**dynam
*part4	*part3	*part3	*part2	*part2	*part2	*part1	*part1	*part1
*staff4	*staff3	*	*staff2	*staff2	*	*staff1	*staff1	*
*Iempty	*Iempty	*	*Iempty	*	*	*Iempty	*	*
*	*I"FORTEPIAN.	*	*I"CONTR:	*	*	*I"SOPR:	*	*
*	*I'pf	*	*I'Contra-A	*	*	*I'S	*	*
*	*ICklav	*	*ICvox	*	*	*ICvox	*	*
*clefF4	*clefG2	*	*clefG2	*	*	*clefG2	*	*
*k[f#c#g#]	*k[f#c#g#]	*	*k[f#c#g#]	*	*	*k[f#c#g#]	*	*
*A:	*A:	*	*A:	*	*	*A:	*	*
*M6/8	*M6/8	*	*M6/8	*	*	*M6/8	*	*
=1	=1	=1	=1	=1	=1	=1	=1	=1
*xywh-#3:381,1959,3184,824	*xywh-#3:381,1959,3184,824	*	*xywh-#3:575,1516,3044,412	*	*	*xywh-#3:480,449,3180,1116	*	*
!	!	!LO:DY:b	!	!	!	!LO:TX:a:B:t=Allegro giusto.	!	!
8AA'\L	8r	p	2.r	.	.	2.r	.	.
!	!LO:TX:b:i:t=leggiero	!	!	!	!	!	!	!
8r	8cc#'/L 8ee/	.	.	.	.	.	.	.
8E'\J 8A\	8c#'/J 8e/	.	.	.	.	.	.	.
8AA'\L	8r	.	.	.	.	.	.	.
8r	8a'/L 8cc#/	.	.	.	.	.	.	.
8E'\J 8A\	8c#'/J 8e/	.	.	.	.	.	.	.
=2	=2	=2	=2	=2	=2	=2	=2	=2
8AA'\L	8r	.	2.r	.	.	2.r	.	.
8r	8b'/L 8dd/	.	.	.	.	.	.	.
8F#'\J 8B\	8d'/J 8f#/	.	.	.	.	.	.	.
8AA'\L	8r	.	.	.	.	.	.	.
8r	8g#'/L 8b/	.	.	.	.	.	.	.
8F#'\J 8B\	8d'/J 8e/	.	.	.	.	.	.	.
!!LO:LB:g=original
=3	=3	=3	=3	=3	=3	=3	=3	=3
*xywh-#3:271,3705,3329,982	*xywh-#3:271,3705,3329,982	*	*xywh-#3:429,3232,3178,503	*	*	*xywh-#3:360,2871,3302,494	*	*
8AA'\L	8r	.	2.r	.	.	8r	.	.
!	!	!	!	!	!	!	!	!LO:DY:a
8r	8cc#'/L 8ee/	.	.	.	.	8ee\	Tę-	p
8E'\J 8A\	8c#'/J 8e/	.	.	.	.	8a/	-dy,	.
8AA'\L	4r	.	.	.	.	4b\	tę-	.
8r	.	.	.	.	.	.	.	.
8E'\J 8A\	8c#'/ 8e/	.	.	.	.	8cc#\	-dy	.
=4	=4	=4	=4	=4	=4	=4	=4	=4
8AA'\L	8r	.	8r	.	.	[2.dd\	le-	.
!	!	!	!	!	!LO:DY:a	!	!	!
8r	8dd'/L 8ee/	.	8b/	Tę-	p	.	.	.
8E'\J 8B\	8d'/J 8e/	.	8e/	-dy,	.	.	.	.
8AA'\L	4r	.	4f#/	tę-	.	.	.	.
8r	.	.	.	.	.	.	.	.
8E'\J 8B\	8d'/ 8e/	.	8g#/	-dy	.	.	.	.
=5	=5	=5	=5	=5	=5	=5	=5	=5
!	!	!	!	!	!LO:DY:a	!	!	!
8AA'\L	8r	.	4a/	le-	<	4dd\]	.	.
8r	8cc#'/L 8ee/	.	.	.	.	.	.	.
8E'\J 8A\	8c#'/J 8e/	.	8cc#\	-ciał	.	8ee\	-ciał	.
!	!	!	!	!	!LO:DY:a	!	!	!
8AA'\L	4r	.	(8ff#\L	pta-	[ >	(8aa\L	pta-	.
8r	.	.	8dd\	.	.	8ff#\	.	.
8F#'\J 8A\	8d'/ 8a/	.	8b\J)	.	]]	8dd\J)	.	.
!!LO:PB:g=original
=6	=6	=6	=6	=6	=6	=6	=6	=6
*xywh-#4:568,1238,3160,703	*xywh-#4:568,1238,3160,703	*	*xywh-#4:574,934,3154,351	*	*	*xywh-#4:604,582,3154,394	*	*
8AA'\L	8r	.	4g#/	-szek,	.	4b\	-szek,	.
8r	8dd'/L 8ee/	.	.	.	.	.	.	.
8E'\J 8B\	(8d'/J 8e/	.	8r	.	.	8r	.	.
8AA'\L	8f#/L)	.	4r	.	.	4r	.	.
8r	8r	.	.	.	.	.	.	.
8E'\J 8B\	8d'/J 8g#/	.	8r	.	.	8r	.	.
=7	=7	=7	=7	=7	=7	=7	=7	=7
8AA'\L	8r	.	2.r	.	.	8r	.	.
8r	8cc#'/L 8ee/	.	.	.	.	8ee\	Och	.
8E'\J 8A\	8c#'/J 8e/	.	.	.	.	8a/	świe-	.
8AA'\L	4r	.	.	.	.	4b\	-cą-	.
8r	.	.	.	.	.	.	.	.
8E'\J 8A\	8c#'/ 8e/	.	.	.	.	8cc#\	-cy	.
=8	=8	=8	=8	=8	=8	=8	=8	=8
8AA'\L	8r	.	8r	.	.	(2.dd\	kra-	.
8r	8dd'/L 8ee/	.	8b/	Och	.	.	.	.
8E'\J 8B\	8d'/J 8e/	.	8e/	świe-	.	.	.	.
8AA'\L	4r	.	4f#/	-cą-	.	.	.	.
8r	.	.	.	.	.	.	.	.
8E'\J 8B\	8d'/ 8e/	.	8g#/	-cy	.	.	.	.
!!LO:LB:g=original
=9	=9	=9	=9	=9	=9	=9	=9	=9
*xywh-#4:501,2536,3294,709	*xywh-#4:501,2536,3294,709	*	*xywh-#4:574,2178,3130,473	*	*	*xywh-#4:526,1923,3257,418	*	*
!	!	!	!	!	!	!	!	!LO:HP:b
8AA'\L	8r	.	4a/	kra-	.	4cc#\)	.	<
8r	8cc#'/L 8ee/	.	.	.	.	.	.	.
8E'\J 8A\	8c#'/J 8e/	.	8g#/	-sno-	.	8ee\	-sno-	.
8AA'\L	8r	.	4.f#/	-pió-	.	(8ee\L	-pió-	.
!	!	!	!	!	!	!	!	!LO:HP:b
8r	8f#'/L 8dd#X/	.	.	.	.	8dd#X\	.	[ >
8D#X'\J 8G#\	8B#X'/J 8g#/	.	.	.	.	8g#\J)	.	.
=10	=10	=10	=10	=10	=10	=10	=10	=10
8C#'\L	8r	.	4e/	-ry.	.	4cc#\	-ry.	.
8r	8ee'/L 8gg#/	.	.	.	.	.	.	.
8G#'\J 8c#\	8e'/J 8g#/	.	8r	.	.	8r	.	]
8C#'\L	4r	.	4r	.	.	[4.ee\	Ztąd	.
8r	.	.	.	.	.	.	.	.
8G#'\J 8c#\	8e'/ 8cc#/	.	8r	.	.	.	.	.
=11	=11	=11	=11	=11	=11	=11	=11	=11
*	*^	*	*	*	*	*	*	*
*	*	*xywh-#4:501,2536,3294,709	*	*	*	*	*	*	*
4r	[2.ee/	8r	.	8r	.	.	2.ee\_	.	.
.	.	8e'\L	.	8e/	Ztąd	.	.	.	.
8r	.	8f#'\J	.	8f#/	od	.	.	.	.
8EE'/L	.	8g#'\L	.	(8g#/L	gniazd-	.	.	.	.
8FF#'/	.	8a'\	.	8a/	.	.	.	.	.
8GG#'/J	.	8b'\J	.	8b/J)	.	.	.	.	.
!!LO:LB:g=original
=12	=12	=12	=12	=12	=12	=12	=12	=12	=12
*xywh-#4:489,3901,3318,685	*xywh-#4:489,3901,3318,685	*xywh-#4:489,3901,3318,685	*	*xywh-#4:550,3567,3148,400	*	*	*xywh-#4:538,3221,3215,436	*	*
8AA'/L	8ee/]	8cc#\	.	8a/	-ka	.	(8ee\L]	.	.
8C#'/	8r	2ryy	.	8r	.	.	8cc#\J)	.	.
8E'/J	8r	.	.	8r	.	.	8a/	od	.
8A'\L	8a'\ 8cc#\	.	.	4r	.	.	4ff#\	gniazd-	.
8B'\	8r	.	.	.	.	.	.	.	.
8c#'\J	8r	8ryy	.	8r	.	.	8ee\	-ka	.
=13	=13	=13	=13	=13	=13	=13	=13	=13	=13
8d\	[2.ee/	8r	.	8r	.	.	[2.ee\	śród	.
8r	.	8e'\L	.	8e/	śród	.	.	.	.
8r	.	8f#'\J	.	8f#/	i-	.	.	.	.
8EE'/L	.	8g#'\L	.	(8g#/L	-gra-	.	.	.	.
8FF#'/	.	8a'\	.	8a/	.	.	.	.	.
8GG#'/J	.	8b'\J	.	8b/J)	.	.	.	.	.
=14	=14	=14	=14	=14	=14	=14	=14	=14	=14
8AA'/L	8ee/]	8cc#\	.	8a/	-szek	.	(8ee\L]	.	.
8C#'/	8r	2ryy	.	8r	.	.	8cc#\J)	.	.
8E'/J	8r	.	.	8r	.	.	8a/	i-	.
8A'\L	4r	.	.	4r	.	.	4ff#\	-gra-	.
8c#'\	.	.	.	.	.	.	.	.	.
8d'\J	8r	8ryy	.	8r	.	.	8ee\	-szek	.
*	*v	*v	*	*	*	*	*	*	*
!!LO:PB:g=original
=15	=15	=15	=15	=15	=15	=15	=15	=15
*xywh-#5:319,1273,3305,679	*xywh-#5:319,1273,3305,679	*	*xywh-#5:404,958,3202,400	*	*	*xywh-#5:434,606,3135,412	*	*
8e'\L	8r	.	4cc#\	Wiał	.	4ee\	Wiał	.
8a'\	8cc#'\L 8ee\	.	.	.	.	.	.	.
8A'\J	8ccn'\J 8aa\	.	8ccn\	się	.	8aa\	się	.
8B'\L	8r	.	4b\	wiał	.	4dd#X\	wiał	.
8f#'\	8b'\L 8dd#X\	.	.	.	.	.	.	.
8D#X'\J	8a'\J 8ff#\	.	8a/	i	.	8ff#\	i	.
=16	=16	=16	=16	=16	=16	=16	=16	=16
8E'\L	8r	.	4g#/	wiał	.	4b\	wiał	.
8B'\	8g#'/L 8b/	.	.	.	.	.	.	.
8AA#X'\J	8gn'/J 8ee/	.	(8gn/	się	.	[8ee\	się	.
8BB'/L	8r	.	4f#/)	.	.	8ee\L]	.	.
8Dn'/	8f#'/L 8a/	.	.	.	.	8ddn\J	.	.
8BB'/J	8fn'/J 8ccn/	.	8fn/	do	.	8a/	do	.
=17	=17	=17	=17	=17	=17	=17	=17	=17
8E'\L	8r	.	(4.e/	gó-	.	([4.cc#\	gó-	.
8A'\	8a'/L 8cc#/	.	.	.	.	.	.	.
8B'\J	8e'/J 8ee/	.	.	.	.	.	.	.
8c#'\L	8r	.	4.e#X/)	.	.	4cc#\]	.	.
8G#'\	8g#'/L 8b/	.	.	.	.	.	.	.
8C#'\J	8e#X'/J 8cc#/	.	.	.	.	8b\)	.	.
!!LO:LB:g=original
=18	=18	=18	=18	=18	=18	=18	=18	=18
*	*^	*	*	*	*	*	*	*
*xywh-#5:374,2638,3190,661	*xywh-#5:374,2638,3190,661	*xywh-#5:374,2638,3190,661	*	*xywh-#5:386,2244,3238,412	*	*	*xywh-#5:434,1892,3172,473	*	*
8F#'/L	8r	2ryy	.	4f#/	-ry;	.	4a/	-ry;	.
8C#'/	8f#'/L 8a/	.	.	.	.	.	.	.	.
8FF#'/J	8c#'/J 8cc#/	.	.	8r	.	.	8r	.	.
!	!	!	!	!	!	!LO:DY:a	!	!	!LO:DY:a
8D'/L	8r	.	.	[4.ff#\	wiał	sf	[4.aa\	wiał	sf
8AA'/	8a/L	4f#\	.	.	.	.	.	.	.
8FF#'/J	8dd/J	.	.	.	.	.	.	.	.
*	*v	*v	*	*	*	*	*	*	*
=19	=19	=19	=19	=19	=19	=19	=19	=19
!	!	!	!	!	!LO:DY:a	!	!	!LO:DY:a
8DD'/	8f#'/ 8a/ 8dd/ 8ff#/	.	8ff#\]	.	>	8aa\]	.	>
8r	8r	.	8dd\	się	.	8ff#\	się	.
8r	8r	.	8b\	do	.	8dd\	do	.
!	!	!	!	!	!	!	!	!LO:DY:a
4r	4r	.	4a/	gó-	]	4b\	gó-	] <
8r	8r	.	8gn/	-ry,	.	8cc#\	-ry,	.
=20	=20	=20	=20	=20	=20	=20	=20	=20
*	*^	*	*	*	*	*	*	*
*	*	*xywh-#5:374,2638,3190,661	*	*	*	*	*	*	*
8r	4r	2ryy	.	4.f#/	wiał	.	([4.ee\	wiał	.
8BBB'/L	.	.	.	.	.	.	.	.	.
8FF#'/J	8r	.	.	.	.	.	.	.	.
!	!	!	!	!	!	!LO:DY:a	!	!	!LO:DY:a
8BB'\L	8r	.	.	4.fn/	do	>	8ee\L]	.	[ >
8Fn'\	8a/L	4d\	.	.	.	.	8dd\J)	.	.
8B'\J	8dd/J	.	.	.	.	.	8a/	do	.
*	*v	*v	*	*	*	*	*	*	*
!!LO:LB:g=original
=21	=21	=21	=21	=21	=21	=21	=21	=21
*xywh-#5:349,3966,3263,661	*xywh-#5:349,3966,3263,661	*	*xywh-#5:361,3590,3257,436	*	*	*xywh-#5:319,3214,3329,491	*	*
4EE/	8r	.	(4e/	gó-	.	([4.cc#\	gó-	.
.	(8c#/L	.	.	.	.	.	.	.
8E\	8a/J	.	8d#X/	.	.	.	.	.
4EE/	8ee\)	.	4.dn/)	.	.	4cc#\]	.	.
.	8r	.	.	.	.	.	.	.
8E\	8d/ 8g#/	.	.	.	]	8b\)	.	]]
=22	=22	=22	=22	=22	=22	=22	=22	=22
8AA'\L	8r	.	4c#/	-ry.	.	4a/	-ry.	.
8r	8cc#'/L 8ee/	.	.	.	.	.	.	.
8E'\J 8A\	8c#'/J 8e/	.	8r	.	.	8r	.	.
8AA'\L	8r	.	4r	.	.	4r	.	.
8r	8a'/L 8cc#/	.	.	.	.	.	.	.
8E'\J 8A\	8c#'/J 8e/	.	8r	.	.	8r	.	.
=23	=23	=23	=23	=23	=23	=23	=23	=23
8AA'\L	8r	.	2.r	.	.	2.r	.	.
8r	8b'/L 8dd/	.	.	.	.	.	.	.
8E'\J 8B\	8d'/J 8f#/	.	.	.	.	.	.	.
8AA'\L	8r	.	.	.	.	.	.	.
8r	8g#'/L 8b/	.	.	.	.	.	.	.
8E'\J 8B\	8d'/J 8e/	.	.	.	.	.	.	.
!!LO:PB:g=original
=24	=24	=24	=24	=24	=24	=24	=24	=24
*xywh-#6:478,1267,3335,697	*xywh-#6:478,1267,3335,697	*	*xywh-#6:533,909,3214,424	*	*	*xywh-#6:575,588,3154,460	*	*
8AA'\L	8r	.	2.r	.	.	8r	.	.
!	!	!	!	!	!	!	!	!LO:DY:a
8r	8cc#'/L 8ee/	.	.	.	.	8ee\	By-	p
8E'\J 8A\	8c#'/J 8e/	.	.	.	.	8a/	-ło	.
8AA'\L	4r	.	.	.	.	4b\	wte-	.
8r	.	.	.	.	.	.	.	.
8E'\J 8A\	8c#/ 8e/	.	.	.	.	8cc#\	-dy	.
=25	=25	=25	=25	=25	=25	=25	=25	=25
8AA'\L	8r	.	8r	.	.	(2.dd\	ja-	.
!	!	!	!	!	!LO:DY:a	!	!	!
8r	8dd'/L 8ee/	.	8b/	By-	p	.	.	.
8E'\J 8B\	8d'/J 8e/	.	8e/	-ło	.	.	.	.
8AA'\L	4r	.	4f#/	wte-	.	.	.	.
8r	.	.	.	.	.	.	.	.
8E'\J 8B\	8d'/ 8e/	.	8g#/	-dy	.	.	.	.
=26	=26	=26	=26	=26	=26	=26	=26	=26
!	!	!	!	!	!LO:DY:a	!	!	!
8AA'\L	8r	.	4a/	ja-	<	4cc#\)	.	.
8r	8cc#'/L 8ee/	.	.	.	.	.	.	.
8E'\J 8A\	8c#'/J 8e/	.	8cc#\	-sne	.	8ee\	-sne	.
!	!	!	!	!	!LO:DY:a	!	!	!
8AA'\L	4r	.	(8ff#\L	ra-	[ >	(8aa\L	ra-	.
8r	.	.	8dd\	.	.	8ff#\	.	.
8F#'\J 8A\	8d'/ 8a/	.	8b\J)	.	]]	8dd\J)	.	.
!!LO:LB:g=original
=27	=27	=27	=27	=27	=27	=27	=27	=27
*xywh-#6:478,2614,3281,703	*xywh-#6:478,2614,3281,703	*	*xywh-#6:557,2292,3172,388	*	*	*xywh-#6:581,1922,3208,448	*	*
8AA'\L	8r	.	4g#/	-no,	.	4b\	-no,	.
8r	8dd/L 8ee/	.	.	.	.	.	.	.
8E'\J 8B\	(8d/J 8e/	.	8r	.	.	8r	.	.
8AA'\L	8f#/L)	.	4r	.	.	4r	.	.
8r	8r	.	.	.	.	.	.	.
8E'\J 8B\	8d'/J 8g#/	.	8r	.	.	8r	.	.
=28	=28	=28	=28	=28	=28	=28	=28	=28
8AA'\L	8r	.	2.r	.	.	8r	.	.
8r	8cc#'/L 8ee/	.	.	.	.	8ee\	Gdy	.
8E'\J 8A\	8c#'/J 8e/	.	.	.	.	8a/	pobrz-	.
8AA'\L	4r	.	.	.	.	4b\	-mie-	.
8r	.	.	.	.	.	.	.	.
8E'\J 8A\	8c#'/ 8e/	.	.	.	.	8cc#\	-wał	.
=29	=29	=29	=29	=29	=29	=29	=29	=29
8AA'\L	8r	.	8r	.	.	(2.dd\	nam	.
8r	8dd'/L 8ee/	.	8b/	Gdy	.	.	.	.
8E'\J 8B\	8d'/J 8e/	.	8e/	pobrz-	.	.	.	.
8AA'\L	4r	.	4f#/	-mie-	.	.	.	.
8r	.	.	.	.	.	.	.	.
8E'\J 8B\	8d'/ 8e/	.	8g#/	-wał	.	.	.	.
!!LO:LB:g=original
=30	=30	=30	=30	=30	=30	=30	=30	=30
*xywh-#6:521,3960,3275,697	*xywh-#6:521,3960,3275,697	*	*xywh-#6:551,3590,3160,430	*	*	*xywh-#6:569,3281,3184,460	*	*
!	!	!	!	!	!LO:DY:a	!	!	!
8AA'\L	8r	.	4a/	nam	<	4cc#\)	.	.
8r	8cc#'/L 8ee/	.	.	.	.	.	.	.
8E'\J 8A\	8c#'/J 8e/	.	8g#/	w roz-	.	8ee\	w roz-	.
!	!	!	!	!	!LO:DY:a	!	!	!
8GG#'\L	8r	.	4.f#/	-gło-	[ >	(8ee\L	-gło-	.
8r	8f#'/L 8dd#X/	.	.	.	.	8dd#X\	.	.
8D#X'\J 8G#\	8B#X'/J 8g#/	.	.	.	.	8g#\J)	.	.
=31	=31	=31	=31	=31	=31	=31	=31	=31
8C#'\L	8r	.	4e/	-sie;	.	4cc#\	-sie;	.
8r	8ee'/L 8gg#/	.	.	.	.	.	.	.
8G#'\J 8c#\	8e'/J 8g#/	.	8r	.	]	8r	.	.
8C#'\L	4r	.	4r	.	.	[4.ee\	Pta-	.
8r	.	.	.	.	.	.	.	.
8G#'\J 8c#\	8e'/ 8cc#/	.	8r	.	.	.	.	.
=32	=32	=32	=32	=32	=32	=32	=32	=32
*	*^	*	*	*	*	*	*	*
*	*	*xywh-#6:521,3960,3275,697	*	*	*	*	*	*	*
4r	[2.ee/	8r	.	8r	.	.	2.ee\_	.	.
!	!	!	!	!LO:TX:a:i:t=leggiero	!	!	!	!	!
.	.	8e'\L	.	8e/	Pta-	.	.	.	.
8r	.	8f#'\J	.	8f#/	-szek	.	.	.	.
8EE'/L	.	8g#'\L	.	(8g#/L	słod-	.	.	.	.
8FF#'/	.	8a'\	.	8a/	.	.	.	.	.
8GG#'/J	.	8b'\J	.	8b/J)	.	.	.	.	.
!!LO:PB:g=original
=33	=33	=33	=33	=33	=33	=33	=33	=33	=33
*xywh-#7:348,1308,3320,666	*xywh-#7:348,1308,3320,666	*xywh-#7:348,1308,3320,666	*	*xywh-#7:396,975,3205,387	*	*	*xywh-#7:408,623,3205,436	*	*
8AA'/L	8ee/]	8cc#\	.	8a/	-ko,	.	8ee\L]	.	.
8C#'/	8r	2ryy	.	8r	.	.	8cc#\J	.	.
8E'/J	8r	.	.	8r	.	.	8a/	-szek	.
8A'\L	8a'\ 8cc#\	.	.	4r	.	.	4ff#\	słod-	.
8B'\	8r	.	.	.	.	.	.	.	.
8c#'\J	8r	8ryy	.	8r	.	.	8ee\	-ko,	.
=34	=34	=34	=34	=34	=34	=34	=34	=34	=34
8d\	[2.ee/	8r	.	8r	.	.	[2.ee\	tak	.
8r	.	8e'\L	.	8e/	tak	.	.	.	.
8r	.	8f#'\J	.	8f#/	wio-	.	.	.	.
8EE'/L	.	8g#'\L	.	(8g#/L	-śnia-	.	.	.	.
8FF#'/	.	8a'\	.	8a/	.	.	.	.	.
8GG#'/J	.	8b'\J	.	8b/J)	.	.	.	.	.
=35	=35	=35	=35	=35	=35	=35	=35	=35	=35
8AA'/L	8ee/]	8cc#\	.	8a/	-no,	.	(8ee\L]	.	.
8C#'/	8r	2ryy	.	8r	.	.	8cc#\J)	.	.
8E'/J	8r	.	.	8r	.	.	8a/	wioś-	.
8A'\L	8a'\ 8cc#\	.	.	4r	.	.	4ff#\	-nia-	.
8c#'\	8r	.	.	.	.	.	.	.	.
8d'\J	8r	8ryy	.	8r	.	.	8ee\	-no,	.
*	*v	*v	*	*	*	*	*	*	*
!!LO:LB:g=original
=36	=36	=36	=36	=36	=36	=36	=36	=36
*xywh-#7:342,2665,3229,648	*xywh-#7:342,2665,3229,648	*	*xywh-#7:414,2278,3247,412	*	*	*xywh-#7:414,1944,3187,442	*	*
8e'\L	8r	.	4cc#\	Pu-	.	4ee\	Pu-	.
8a'\	8cc#'\L 8ee\	.	.	.	.	.	.	.
8A'\J	8ccn'\J 8aa\	.	8ccn\	-ścił	.	8aa\	-ścił	.
8B'\L	8r	.	4b\	pier-	.	4dd#X\	pier-	.
8f#'\	8b'\L 8dd#X\	.	.	.	.	.	.	.
8D#X'\J	8a'\J 8ff#\	.	8a/	-wszą	.	8ff#\	-wszą	.
=37	=37	=37	=37	=37	=37	=37	=37	=37
!	!	!	!	!	!LO:DY:a	!	!	!
8E'\L	8r	.	(4g#/	pieśń,	<	(4b\	pieśń,	.
8B'\	8g#'/L 8b/	.	.	.	.	.	.	.
8AA#X'\J	8gn'/J 8ee/	.	8gn/	.	.	[8ee\	.	.
8BB'/L	8r	.	4f#/)	.	.	8ee\L]	.	.
8Dn'/	8f#'/L 8a/	.	.	.	.	8ddn\J)	.	.
8BB'/J	8fn'/J 8ccn/	.	8fn/	po	[	8a/	po	.
=38	=38	=38	=38	=38	=38	=38	=38	=38
!	!	!	!	!	!LO:DY:a	!	!	!
8E'\L	8r	.	(4.e/	ro-	>	([4.cc#\	ro-	.
8A'\	8a'/L 8cc#/	.	.	.	.	.	.	.
8B'\J	8e'/J 8ee/	.	.	.	.	.	.	.
8c#'\L	8r	.	4.e#X/)	.	.	4cc#\]	.	.
8G#'\	8g#'/L 8b/	.	.	.	.	.	.	.
8C#'\J	8e#X'/J 8cc#/	.	.	.	]	8b\)	.	.
!!LO:LB:g=original
=39	=39	=39	=39	=39	=39	=39	=39	=39
*	*^	*	*	*	*	*	*	*
*xywh-#7:408,4004,3199,642	*xywh-#7:408,4004,3199,642	*xywh-#7:408,4004,3199,642	*	*xywh-#7:390,3604,3253,436	*	*	*xywh-#7:354,3229,3302,515	*	*
8F#'/L	8r	2ryy	.	4f#/	-sie.	.	4a/	-sie.	.
8C#'/	8f#'/L 8a/	.	.	.	.	.	.	.	.
8FF#'/J	8c#'/J 8cc#/	.	.	8r	.	.	8r	.	.
!	!	!	!	!	!	!LO:DY:a	!	!	!LO:DY:a
8D'/L	8r	.	.	[4.ff#\	Pu-	sf	[4.aa\	Pu-	sf
8AA'/	8a/L	4f#\	.	.	.	.	.	.	.
8FF#'/J	8dd/J	.	.	.	.	.	.	.	.
*	*v	*v	*	*	*	*	*	*	*
=40	=40	=40	=40	=40	=40	=40	=40	=40
8DD'/	8f#'/ 8a/ 8dd/ 8ff#/	.	8ff#\]	.	.	8aa\]	.	.
!	!	!	!	!	!LO:DY:a	!	!	!LO:DY:a
8r	8r	.	8dd\	-ścił	>	8ff#\	-ścił	>
8r	8r	.	8b\	po	.	8dd\	po	.
!	!	!	!	!	!LO:DY:a	!	!	!LO:DY:a
4r	4r	.	4g#/	ro-	] <	4b\	ro-	] <
8r	8r	.	8gn/	-sie	.	8cc#\	-sie	.
!!LO:PB:g=original
=41	=41	=41	=41	=41	=41	=41	=41	=41
*	*^	*	*	*	*	*	*	*
*xywh-#8:520,1337,3229,717	*xywh-#8:520,1337,3229,717	*xywh-#8:520,1337,3229,717	*	*xywh-#8:544,936,3180,437	*	*	*xywh-#8:514,516,3235,529	*	*
8r	4r	2ryy	.	4.f#/	pu-	.	([4.ee\	pu-	.
8BBB/L	.	.	.	.	.	.	.	.	.
8FF#/J	8r	.	.	.	.	.	.	.	.
8BB\L	8r	.	.	4.fn/	-scił	[[	8ee\L]	.	.
8Fn\	8a/L	4d\	.	.	.	.	8dd\J)	.	[
8B\J	8dd/J	.	.	.	.	.	8a/	-scił	.
*	*v	*v	*	*	*	*	*	*	*
=42	=42	=42	=42	=42	=42	=42	=42	=42
!	!	!	!	!	!LO:DY:a	!	!	!LO:DY:a
(4EE/	8r	.	(4e/	pier-	>	[4.cc#\	pier-	>
.	(8c#/L	.	.	.	.	.	.	.
8E\)	8a/J	.	8d#X/)	.	.	.	.	.
(4EE/	8ee'\)	.	4.dn/	-wszą	.	4cc#\]	.	.
.	8r	.	.	.	.	.	.	.
8E\)	8d'/ 8g#/	.	.	.	]	8b\	-wszą	]]
=43	=43	=43	=43	=43	=43	=43	=43	=43
8AA'\L	8r	.	4c#/	pieśń.	.	4a/	pieśń.	.
8r	8cc#'/L 8ee/	.	.	.	.	.	.	.
8E'\J 8A\	8c#'/J 8e/	.	8r	.	.	8r	.	.
8AA'\L	8r	.	4r	.	.	4r	.	.
8r	8a'/L 8cc#/	.	.	.	.	.	.	.
8E'\J 8A\	8c#'/J 8e/	.	8r	.	.	8r	.	.
!!LO:LB:g=original
=44	=44	=44	=44	=44	=44	=44	=44	=44
*xywh-#8:477,2639,3253,687	*xywh-#8:477,2639,3253,687	*	*xywh-#8:562,2335,3162,340	*	*	*xywh-#8:501,2012,3302,358	*	*
8AA'\L	8r	.	2.r	.	.	2.r	.	.
!	!LO:TX:t=P:problem=mixed beam	!	!	!	!	!	!	!
8r	8ee'\L 8aa\	.	.	.	.	.	.	.
8E'\J 8A\	8c#'/J 8e/	.	.	.	.	.	.	.
8AA'\L	8r	.	.	.	.	.	.	.
8r	8cc#'/L 8ee/	.	.	.	.	.	.	.
8E'\J 8A\	8c#'/J 8e/	.	.	.	.	.	.	.
=45	=45	=45	=45	=45	=45	=45	=45	=45
!	!	!LO:DY:b	!	!	!	!	!	!
2.GG#/	8G#/L 8g#/	pp	2.r	.	.	2.r	.	.
.	8G#/ 8g#/	.	.	.	.	.	.	.
.	8G#/J 8g#/	.	.	.	.	.	.	.
.	8G#/L 8g#/	.	.	.	.	.	.	.
.	8G#/ 8g#/	.	.	.	.	.	.	.
.	8G#/J 8g#/	.	.	.	.	.	.	.
=46	=46	=46	=46	=46	=46	=46	=46	=46
(4.FF#/ 4.F#/	8G#/L 8g#/	.	2.r	.	.	2.r	.	.
.	8G#/ 8g#/	.	.	.	.	.	.	.
.	8G#/J 8g#/	.	.	.	.	.	.	.
4EE/ 4E/	8G#/L 8g#/	.	.	.	.	.	.	.
.	8G#/ 8g#/	.	.	.	.	.	.	.
8DD#X/) 8D#X/	8G#/J 8g#/	.	.	.	.	.	.	.
!!LO:LB:g=original
=47	=47	=47	=47	=47	=47	=47	=47	=47
*xywh-#8:550,3995,3241,668	*xywh-#8:550,3995,3241,668	*	*xywh-#8:556,3624,3168,407	*	*	*xywh-#8:568,3283,3186,401	*	*
!	!	!	!	!	!LO:DY:a	!	!	!
2.CC#/ 2.C#/	8G#/L 8e/ 8g#/	.	4.g#/	Dzwo-	p	2.r	.	.
.	8G#/ 8e/ 8g#/	.	.	.	.	.	.	.
.	8G#/J 8e/ 8g#/	.	.	.	.	.	.	.
.	8G#/L 8e/ 8g#/	.	4.g#/	-nił	.	.	.	.
.	8G#/ 8e/ 8g#/	.	.	.	.	.	.	.
.	8G#/J 8e/ 8g#/	.	.	.	.	.	.	.
=48	=48	=48	=48	=48	=48	=48	=48	=48
2.CC#/ 2.C#/	8A/L 8c#/ 8f#/	.	4.cc#\	swo-	.	2.r	.	.
.	8A/ 8c#/ 8f#/	.	.	.	.	.	.	.
.	8A/J 8c#/ 8f#/	.	.	.	.	.	.	.
.	8A/L 8c#/ 8f#/	.	(4b\	-je	.	.	.	.
.	8A/ 8c#/ 8f#/	.	.	.	.	.	.	.
.	8A/J 8c#/ 8f#/	.	8a/)	.	.	.	.	.
=49	=49	=49	=49	=49	=49	=49	=49	=49
!	!	!	!	!	!	!	!	!LO:DY:a
!	!	!LO:HP:b	!	!	!	!	!	!LO:DY:a
2.CC#/ 2.C#/	8G#/L 8c#/ 8e/	<	4g#/	zaw-	.	4.g#/	Słów-	p <
.	8G#/ 8c#/ 8e/	.	.	.	.	.	.	.
.	8G#/J 8c#/ 8e/	.	8f#/	-sze	.	.	.	.
.	8G#/L 8c#/ 8e/	.	(4e/	swo-	.	4.g#/	-ka	[[
.	8G#/ 8c#/ 8e/	.	.	.	.	.	.	.
.	8G#/J 8c#/ 8e/	[[	8d#X/)	.	.	.	.	.
!!LO:PB:g=original
=50	=50	=50	=50	=50	=50	=50	=50	=50
*xywh-#9:399,1314,3271,702	*xywh-#9:399,1314,3271,702	*	*xywh-#9:429,938,3205,424	*	*	*xywh-#9:441,587,3150,490	*	*
2.CC#/ 2.C#/	8G#/L 8e/ 8g#/	.	4c#/	-je:	.	4.gg#\	peł-	.
.	8G#/ 8e/ 8g#/	.	.	.	.	.	.	.
.	8G#/J 8e/ 8g#/	.	8r	.	.	.	.	.
.	8G#/L 8e/ 8g#/	.	4r	.	.	(4ff#\	-ne	.
.	8G#/ 8e/ 8g#/	.	.	.	.	.	.	.
.	8G#/J 8e/ 8g#/	.	8r	.	.	8ee\)	.	.
=51	=51	=51	=51	=51	=51	=51	=51	=51
!	!	!LO:HP:b	!	!	!	!	!	!LO:DY:a
2.GGG#/ 2.GG#/	8G#/L 8B#X/ 8e/	<	4r	.	.	4dd#X\	wo-	<
.	8G#/ 8B#/ 8g#/	.	.	.	.	.	.	.
.	8G#/J 8B#/ 8g#/	.	8r	.	.	8cc#\	-ni	.
!	!	!	!	!	!LO:DY:a	!	!	!
.	8A#X/L 8c#/ 8g#/	.	(4.f##X/	dzwo-	<[	(4b#X\	kra-	.
.	8A#/ 8c#/ 8g#/	.	.	.	.	.	.	.
.	8A#/J 8c#/ 8g#/	.	.	.	.	8a#X/	.	[[
=52	=52	=52	=52	=52	=52	=52	=52	=52
!	!	!	!	!	!LO:DY:a	!	!	!LO:DY:a
2.GGG#/ 2.GG#/	8B#X/L 8d#X/ 8g#/	.	4.g#/	.	>	4.g#/	.	>
.	8B#/ 8d#/ 8g#/	.	.	.	.	.	.	.
!	!	!LO:HP:b	!	!	!	!	!	!
.	8B#/J 8d#/ 8g#/	[ >	.	.	.	.	.	.
.	8c#/L 8e/ 8g#/	.	4.a#X/)	.	.	4.ee\)	.	.
.	8c#/ 8e/ 8g#/	.	.	.	.	.	.	.
.	8c#/J 8e/ 8g#/	]]	.	.	]]	.	.	]]
!!LO:LB:g=original
=53	=53	=53	=53	=53	=53	=53	=53	=53
*xywh-#9:387,2659,3314,702	*xywh-#9:387,2659,3314,702	*	*xywh-#9:423,2320,3229,351	*	*	*xywh-#9:435,1993,3199,369	*	*
!	!	!LO:DY:b	!	!	!	!	!	!
2.GGG#/ 2.GG#/	8B#X/L 8d/ 8g#/	pp	4b#X\	-nił;	.	4dd#X\	-sy;	.
.	8G#/ 8g#/	.	.	.	.	.	.	.
.	8G#/J 8g#/	.	8r	.	.	8r	.	.
.	8G#/L 8g#/	.	4r	.	.	4r	.	.
.	8G#/ 8g#/	.	.	.	.	.	.	.
.	8G#/J 8g#/	.	8r	.	.	8r	.	.
=54	=54	=54	=54	=54	=54	=54	=54	=54
(4.FF#/ 4.F#/	8G#/L 8g#/	.	2.r	.	.	2.r	.	.
.	8G#/ 8g#/	.	.	.	.	.	.	.
.	8G#/J 8g#/	.	.	.	.	.	.	.
4EE/ 4E/	8G#/L 8g#/	.	.	.	.	.	.	.
.	8G#/ 8g#/	.	.	.	.	.	.	.
8DD#X/) 8D#X/	8G#/J 8g#/	.	.	.	.	.	.	.
=55	=55	=55	=55	=55	=55	=55	=55	=55
2.CC#/ 2.C#/	8G#/L 8e/ 8g#/	.	4.g#/	za-	.	2.r	.	.
.	8G#/ 8e/ 8g#/	.	.	.	.	.	.	.
.	8G#/J 8e/ 8g#/	.	.	.	.	.	.	.
.	8G#/L 8e/ 8g#/	.	4.g#/	-po-	.	.	.	.
.	8G#/ 8e/ 8g#/	.	.	.	.	.	.	.
.	8G#/J 8e/ 8g#/	.	.	.	.	.	.	.
!!LO:LB:g=original
=56	=56	=56	=56	=56	=56	=56	=56	=56
*xywh-#9:393,4016,3253,630	*xywh-#9:393,4016,3253,630	*	*xywh-#9:417,3635,3223,393	*	*	*xywh-#9:435,3332,3180,387	*	*
2.CC#/ 2.C#/	8A/L 8c#/ 8f#/	.	4.cc#\	-mnia-	.	2.r	.	.
.	8A/ 8c#/ 8f#/	.	.	.	.	.	.	.
.	8A/J 8c#/ 8f#/	.	.	.	.	.	.	.
.	8A/L 8c#/ 8f#/	.	(4b\	-ne	.	.	.	.
.	8A/ 8c#/ 8f#/	.	.	.	.	.	.	.
.	8A/J 8c#/ 8f#/	.	8a/)	.	.	.	.	.
=57	=57	=57	=57	=57	=57	=57	=57	=57
2.CC#/ 2.C#/	8G#/L 8c#/ 8e/	.	4g#/	ja-	.	4.g#/	prze-	.
.	8G#/ 8c#/ 8e/	.	.	.	.	.	.	.
.	8G#/J 8c#/ 8e/	.	8f#/	-kieś	.	.	.	.
.	8G#/L 8c#/ 8e/	.	(4e/	bo-	.	4.g#/	-mi-	.
.	8G#/ 8c#/ 8e/	.	.	.	.	.	.	.
.	8G#/J 8c#/ 8e/	.	8d#X/)	.	.	.	.	.
=58	=58	=58	=58	=58	=58	=58	=58	=58
2.CC#/ 2.C#/	8G#/L 8e/ 8g#/	.	4c#/	-je,	.	4.ee\	-nio-	.
.	8G#/ 8e/ 8g#/	.	.	.	.	.	.	.
.	8G#/J 8e/ 8g#/	.	8r	.	.	.	.	.
.	8A#X/L 8e/ 8g#/	.	4r	.	.	(4dd#X\	-ne	.
.	8A#/ 8e/ 8g#/	.	.	.	.	.	.	.
.	8A#/J 8e/ 8g#/	.	8r	.	.	8cc#\)	.	.
!!LO:PB:g=original
=59	=59	=59	=59	=59	=59	=59	=59	=59
*xywh-#10:446,1288,3273,710	*xywh-#10:446,1288,3273,710	*	*xywh-#10:531,960,3200,364	*	*	*xywh-#10:513,547,3206,479	*	*
[2.DD#X/ [2.D#X/	8B/L 8d#X/ 8g#/	.	4r	.	.	4.b\	mil-	.
.	8B/ 8d#/ 8g#/	.	.	.	.	.	.	.
.	8B/J 8d#/ 8g#/	.	8r	.	.	.	.	.
.	8A#X/L 8c#/ 8g#/	.	(4.g#/	cza-	.	4.ee\	-sze	.
.	8A#/ 8c#/ 8g#/	.	.	.	.	.	.	.
.	8A#/J 8c#/ 8g#/	.	.	.	>	.	.	>
=60	=60	=60	=60	=60	=60	=60	=60	=60
2.DD#/_ 2.D#/_	8A#X/L 8c#/ 8f##X/	.	4.f##X/	.	.	(4.ee\	cza-	.
.	8A#/ 8c#/ 8f##/	.	.	.	.	.	.	.
.	8A#/J 8c#/ 8f##/	.	.	.	.	.	.	.
.	8A#/L 8c#/ 8f##/	.	4g#/	.	.	4.dd#X\)	.	.
.	8A#/ 8c#/ 8f##/	.	.	.	.	.	.	.
.	8A#/J 8c#/ 8f##/	.	8a#X/)	.	]]	.	.	]]
=61	=61	=61	=61	=61	=61	=61	=61	=61
(4DD#/] 4D#/]	8B/L 8d#X/ 8g#/	.	4g#/	-sy.	.	4g#/	-sy.	.
.	8B/ 8d#/ 8g#/	.	.	.	.	.	.	.
8C#/	8B/J 8d#/ 8g#/	.	8r	.	.	8r	.	.
4BB/	8B/L 8d#/ 8g#/	.	4r	.	.	4r	.	.
.	8B/ 8d#/ 8g#/	.	.	.	.	.	.	.
8AA#X/	8B/J 8d#/ 8g#/	.	8r	.	.	8r	.	.
!!LO:LB:g=original
=62	=62	=62	=62	=62	=62	=62	=62	=62
*xywh-#10:464,2642,3273,661	*xywh-#10:464,2642,3273,661	*	*xywh-#10:549,2271,3158,382	*	*	*xywh-#10:537,1992,3152,370	*	*
4GG#/	8B/L 8d#X/ 8g#/	.	2.r	.	.	2.r	.	.
.	8B/ 8d#/ 8g#/	.	.	.	.	.	.	.
8FF#/	8B/J 8d#/ 8g#/	.	.	.	.	.	.	.
4EE/)	8B/L 8d#/ 8g#/	.	.	.	.	.	.	.
.	8B/ 8d#/ 8g#/	.	.	.	.	.	.	.
8DD#X/	8B/J 8d#/ 8g#/	.	.	.	.	.	.	.
=63	=63	=63	=63	=63	=63	=63	=63	=63
4.CC#/	8e/L 8g#/	.	4r	.	.	4r	.	.
.	8e/ 8g#/	.	.	.	.	.	.	.
.	8e/J 8g#/	.	8r	.	.	8r	.	.
!	!	!	!	!	!LO:DY:a	!	!	!LO:DY:a
4C#/	8e/L 8g#/	.	[4.e^>/	J	p	(4.g#^>/	J	p
.	8e/ 8g#/	.	.	.	.	.	.	.
8BB/	8e/J 8g#/	.	.	.	.	.	.	.
=64	=64	=64	=64	=64	=64	=64	=64	=64
4.AA/	8e/L 8f#/	.	4.e/]	.	.	4.f#/)	.	.
.	8e/ 8f#/	.	.	.	.	.	.	.
.	8e/J 8f#/	.	.	.	.	.	.	.
4.GG#/	8dn/L 8b/	.	4.dn/	wy	.	4.b/	wy	.
.	8d/ 8b/	.	.	.	.	.	.	.
.	8d/J 8b/	.	.	.	.	.	.	.
!!LO:LB:g=original
=65	=65	=65	=65	=65	=65	=65	=65	=65
*xywh-#10:446,4002,3303,655	*xywh-#10:446,4002,3303,655	*	*xywh-#10:501,3589,3230,437	*	*	*xywh-#10:488,3261,3243,406	*	*
4.AA/	8c#/L 8e/	.	4c#/	bły-	.	4e/	bły-	.
.	8c#/ 8e/	.	.	.	.	.	.	.
.	8c#/J 8e/	.	8c#/	-snął	.	8e/	-snął	.
4.DD#X/	8cn/L 8a/	.	4cn/	w ob-	.	4a/	w ob-	.
.	8c/ 8a/	.	.	.	.	.	.	.
.	8c/J 8a/	.	8c/	-szar	.	8a/	-szar	.
=66	=66	=66	=66	=66	=66	=66	=66	=66
!	!	!	!LO:TX:t=P:LO:N:vis=4:problem	!	!	!	!	!
4.EE/	8B/L 8g#/	.	4.B/	si-	.	(4g#/	si-	.
.	8B/ 8g#/	.	.	.	.	.	.	.
.	8B/J 8g#/	.	.	.	.	8f#/)	.	.
4FF#/	8B/L 8g#/	.	8e/	-ny:	.	8e/	-ny:	.
.	8B/ 8g#/	.	8r	.	.	8r	.	.
8GG#/	8B/J 8g#/	.	8r	.	.	8r	.	.
=67	=67	=67	=67	=67	=67	=67	=67	=67
4.AA/	8r	.	4r	.	.	4r	.	.
.	8cn/L 8e/ 8f#/	.	.	.	.	.	.	.
.	8c/J 8e/ 8f#/	.	8r	.	.	8r	.	.
!	!	!LO:DY:b	!	!	!LO:DY:a	!	!	!LO:DY:a
4FF#/	8c/L 8e/ 8f#/	sfp	([4.ccn\	Tę-	sf	([4.ee\	Tę-	sf
.	8c/ 8e/ 8f#/	.	.	.	.	.	.	.
8GG#/	8c/J 8e/ 8f#/	.	.	.	.	.	.	.
!!LO:PB:g=original
=68	=68	=68	=68	=68	=68	=68	=68	=68
*xywh-#11:374,1288,3242,641	*xywh-#11:374,1288,3242,641	*	*xywh-#11:332,901,3284,441	*	*	*xywh-#11:434,574,3151,399	*	*
4.AA/	8cn/L 8e/ 8f#/	.	4cc\]	.	.	4ee\]	.	.
.	8c/ 8e/ 8f#/	.	.	.	.	.	.	.
.	8c/J 8e/ 8f#/	.	8e/)	.	.	8f#/)	.	.
!	!	!	!	!	!	!	!	!LO:DY:a
4.AA#X/	8c#X/L 8e/ 8f#/	.	8e/	-dy,	.	8f#/	-dy,	p
.	8c#/ 8e/ 8f#/	.	8r	.	.	8r	.	.
.	8c#/J 8e/ 8f#/	.	8r	.	.	8r	.	.
=69	=69	=69	=69	=69	=69	=69	=69	=69
[2.BB/	8B/L 8e/ 8g#/	.	4r	.	.	4r	.	.
.	8B/ 8e/ 8g#/	.	.	.	.	.	.	.
.	8B/J 8e/ 8g#/	.	8r	.	.	8r	.	.
!	!	!LO:DY:b	!	!	!LO:DY:a	!	!	!LO:DY:a
.	8B/L 8e/ 8g#/	pp	4e/	le-	pp	4g#/	le-	pp
.	8B/ 8e/ 8g#/	.	.	.	.	.	.	.
.	8B/J 8e/ 8g#/	.	8e/	-ciał	.	8g#/	-ciał	.
=70	=70	=70	=70	=70	=70	=70	=70	=70
4.BB/]	8A/L 8e/ 8f#/	.	(4.e/	pła-	.	2.f#/	pła-	.
.	8A/ 8e/ 8f#/	.	.	.	.	.	.	.
.	8A/J 8e/ 8f#/	.	.	.	.	.	.	.
4.BB#X/	8A/L 8d#X/ 8f#/	.	4.d#X/)	.	.	.	.	.
.	8A/ 8d#/ 8f#/	.	.	.	.	.	.	.
.	8A/J 8d#/ 8f#/	.	.	.	.	.	.	.
!!LO:LB:g=original
=71	=71	=71	=71	=71	=71	=71	=71	=71
*xywh-#11:332,2643,3345,592	*xywh-#11:332,2643,3345,592	*	*xywh-#11:380,2250,3212,399	*	*	*xywh-#11:453,1905,3115,411	*	*
4.C#/	8r	.	4e/	-szek.	.	4e/	-szek.	.
.	8A#X/L 8e/ 8g#/	.	.	.	.	.	.	.
.	8A#/J 8e/ 8g#/	.	8r	.	.	8r	.	.
!	!	!	!	!	!LO:DY:a	!	!	!LO:DY:a
4AA#X/	8A#/L 8e/ 8g#/	.	([4.ee\	Tę-	sf	([4.gg#\	Tę-	sf
.	8A#/ 8e/ 8g#/	.	.	.	.	.	.	.
8BB/	8A#/J 8e/ 8g#/	.	.	.	.	.	.	.
=72	=72	=72	=72	=72	=72	=72	=72	=72
4.C#/	8A#X/L 8e/ 8g#/	.	4ee\]	.	.	4gg#\]	.	.
.	8A#/ 8e/ 8g#/	.	.	.	.	.	.	.
.	8A#/J 8e/ 8g#/	.	8g#/)	.	.	8b\)	.	.
4.C##X/	8B/L 8e/ 8g#/	.	8g#/	-dy,	.	8b\	-dy,	.
.	8B/ 8e/ 8g#/	.	8r	.	.	8r	.	.
.	8B/J 8e/ 8g#/	.	8r	.	.	8r	.	.
=73	=73	=73	=73	=73	=73	=73	=73	=73
2.D#X\	8B/L 8d#X/ 8g#/	.	4r	.	.	4r	.	.
.	8B/ 8d#/ 8g#/	.	.	.	.	.	.	.
.	8B/J 8d#/ 8g#/	.	8r	.	.	8r	.	.
!	!	!	!	!	!LO:DY:a	!	!	!LO:DY:a
.	8B/L 8d#/ 8g#/	.	4d#X/	le-	pp	4dd#X\	le-	pp
.	8B/ 8d#/ 8g#/	.	.	.	.	.	.	.
.	8B/J 8d#/ 8g#/	.	8d#/	-ciał	.	8dd#\	-ciał	.
!!LO:LB:g=original
=74	=74	=74	=74	=74	=74	=74	=74	=74
*xywh-#11:350,3956,3266,659	*xywh-#11:350,3956,3266,659	*	*xywh-#11:428,3569,3236,435	*	*	*xywh-#11:428,3218,3194,453	*	*
2.DD#X/	8B/L 8c##X/ 8g#/	.	4.e#X/	pła-	.	4.cc##X\	pła-	.
.	8B/ 8c##/ 8g#/	.	.	.	.	.	.	.
.	8B/J 8c##/ 8g#/	.	.	.	.	.	.	.
!	!LO:TX:t=P:problem=kasownik obok krzyżyka	!	!	!	!	!LO:TX:t=P:problem=kasownik obok krzyżyka	!	!
.	8A#X/L 8cn#X/ 8f##X/	.	4.f##X/	-szek.	.	4.ccn#X\	-szek.	.
.	8A#/ 8c#/ 8f##/	.	.	.	.	.	.	.
.	8A#/J 8c#/ 8f##/	.	.	.	.	.	.	.
=75	=75	=75	=75	=75	=75	=75	=75	=75
!	!	!LO:HP:b	!	!	!LO:DY:a	!	!	!LO:DY:a
(8EE/L	(8g#/L	<	(4.g#/	Mo-	<	2.b\	Nu-	<
8BB/	8e/	.	.	.	.	.	.	.
8E/J	8B/J	.	.	.	.	.	.	.
8EE/L	8b/L	.	4.e/	.	.	.	.	.
8BB/	8e/	.	.	.	.	.	.	.
8E/J)	8B/J)	.	.	.	.	.	.	.
=76	=76	=76	=76	=76	=76	=76	=76	=76
(8EE/L	(8g#/L	.	4d#X/)	.	.	2.b\	-tą	.
8BB/	8e/	.	.	.	.	.	.	.
8E/J	8B/J	.	8c#/	-że	.	.	.	.
8EE/L	8b/L	.	4B/	nu-	.	.	.	.
8BB/	8e/	.	.	.	.	.	.	.
8E/J)	8B/J)	.	8a/	-tą	.	.	.	.
!!LO:PB:g=original
=77	=77	=77	=77	=77	=77	=77	=77	=77
*xywh-#12:464,1290,3331,684	*xywh-#12:464,1290,3331,684	*	*xywh-#12:549,915,3216,430	*	*	*xywh-#12:573,587,3131,442	*	*
(8EE/L	(8b/L	.	4.g#/	U-	.	4.b\	U-	.
8BB/	8e/	.	.	.	.	.	.	.
8E/J	8B/J	.	.	.	.	.	.	.
8EE/L	8b/L	.	4.gn/	-kra-	[[	4.ee\	-kra-	[[
8BB/	8e/	.	.	.	.	.	.	.
8E/J)	8B/J)	[[	.	.	.	.	.	.
=78	=78	=78	=78	=78	=78	=78	=78	=78
!	!	!LO:HP:b	!	!	!LO:DY:a	!	!	!LO:DY:a
(8EE/L	(8b/L	>	4.f#/	-i-	>	4.dd#X\	-i-	>
8BB/	8f#/	.	.	.	.	.	.	.
8E/J	8B/J	.	.	.	.	.	.	.
8EE/L	8b/L	.	(4g#X/	-ny,	.	4.cc#\	-ny,	.
8BB/	8f#/	.	.	.	.	.	.	.
8E/J)	8B/J)	]]	8a/)	.	]]	.	.	]]
=79	=79	=79	=79	=79	=79	=79	=79	=79
!	!	!LO:HP:b	!	!	!LO:DY:a	!	!	!LO:DY:a
(8EE/L	(8b/L	<	(4.g#/	słuch	<	[2.b\	słuch	<
8BB/	8e/	.	.	.	.	.	.	.
8E/J	8B/J	.	.	.	.	.	.	.
8EE/L	8b/L	.	4.e/	.	.	.	.	.
8BB/	8e/	.	.	.	.	.	.	.
8E/J)	8B/J)	.	.	.	.	.	.	.
!!LO:LB:g=original
=80	=80	=80	=80	=80	=80	=80	=80	=80
*xywh-#12:470,2629,3295,666	*xywh-#12:470,2629,3295,666	*	*xywh-#12:531,2235,3149,460	*	*	*xywh-#12:567,1944,3131,424	*	*
(8EE/L	(8b/L	.	4d#X/)	.	.	2.b\_	.	.
8BB/	8f#/	.	.	.	.	.	.	.
8E/J	8B/J	.	8c#/	cza-	.	.	.	.
8EE/L	8b/L	.	4B/	-ro-	.	.	.	.
8BB/	8f#/	.	.	.	.	.	.	.
8E/J)	8B/J)	.	8a/	-wać	.	.	.	.
=81	=81	=81	=81	=81	=81	=81	=81	=81
(8EE/L	(8b/L	.	4.g#/	śli-	.	4.b\]	.	.
8BB/	8e/	.	.	.	.	.	.	.
8E/J	8B/J	.	.	.	.	.	.	.
8EE/L	8b/L	.	4.gn/	-cznych	[[	4.ee\	cza-	[[
8BB/	8e/	.	.	.	.	.	.	.
8E/J)	8B/J)	[[	.	.	.	.	.	.
=82	=82	=82	=82	=82	=82	=82	=82	=82
!	!	!LO:HP:b	!	!	!LO:DY:a	!	!	!LO:DY:a
(8EE/L	(8b/L	>	4.f#/	La-	>	4.dd#X\	-ro-	>
8BB/	8f#/	.	.	.	.	.	.	.
8E/J	8B/J	.	.	.	.	.	.	.
8EE/L	8b/L	.	(4g#X/	-szek,	.	4.cc#\	-wać	.
8BB/	8f#/	.	.	.	.	.	.	.
8E/J)	8B/J)	]]	8a/)	.	]]	.	.	]]
!!LO:LB:g=original
=83	=83	=83	=83	=83	=83	=83	=83	=83
*xywh-#12:422,3980,3428,678	*xywh-#12:422,3980,3428,678	*	*xywh-#12:531,3598,3174,430	*	*	*xywh-#12:561,3259,3143,411	*	*
!	!	!LO:HP:b	!	!	!LO:DY:a	!	!	!LO:DY:a
(8EE/L	(8b/L	<	4.g#/	słuch	<	2.b\	śli-	<
8BB/	8e/	.	.	.	.	.	.	.
8E/J	8B/J	.	.	.	.	.	.	.
8EE/L	8b/L	.	4.e/	cza-	.	.	.	.
8BB/	8e/	.	.	.	.	.	.	.
8E/J)	8B/J)	.	.	.	.	.	.	.
=84	=84	=84	=84	=84	=84	=84	=84	=84
(8EE/L	(8b/L	.	4d#X/	-ro-	.	2.b\	-cznych	.
8BB/	8f#/	.	.	.	.	.	.	.
8E/J	8B/J	.	8c#/	-wać	.	.	.	.
8EE/L	8b/L	.	4B/	śli-	.	.	.	.
8BB/	8f#/	.	.	.	.	.	.	.
8E/J)	8B/J)	.	8a/	-cznych	.	.	.	.
=85	=85	=85	=85	=85	=85	=85	=85	=85
(8EE/L	(8b/L	.	[2.g#/	La-	.	[2.b\	La-	.
8BB/	8e/	.	.	.	.	.	.	.
8E/J	8B/J	.	.	.	.	.	.	.
8EE/L	8b/L	.	.	.	.	.	.	.
8BB/	8e/	.	.	.	.	.	.	.
8E/J)	8B/J)	.	.	.	.	.	.	.
!!LO:PB:g=original
=86	=86	=86	=86	=86	=86	=86	=86	=86
*xywh-#13:270,1299,3395,680	*xywh-#13:270,1299,3395,680	*	*xywh-#13:373,935,3213,388	*	*	*xywh-#13:397,619,3182,394	*	*
(8EE/L	(8b/L	.	2.g#/]	.	.	2.b\]	.	.
8BB/	8e/	.	.	.	.	.	.	.
8E/J	8B/J	.	.	.	.	.	.	.
8EE/L	8b/L	.	.	.	.	.	.	.
8BB/	8e/	.	.	.	.	.	.	.
8E/J)	8B/J)	[[	.	.	[[	.	.	[[
=87	=87	=87	=87	=87	=87	=87	=87	=87
!	!	!LO:HP:b	!	!	!LO:DY:a	!	!	!LO:DY:a
(8EE/L	(8b/L	>	[2.e/	-szek.	>	[2.g#/	-szek.	>
8BB/	8e/	.	.	.	.	.	.	.
8E/J	8B/J	.	.	.	.	.	.	.
8EE/L	8b/L	.	.	.	.	.	.	.
8BB/	8e/	.	.	.	.	.	.	.
8E/J)	8B/J)	.	.	.	.	.	.	.
=88	=88	=88	=88	=88	=88	=88	=88	=88
(8EE/L	(8b/L	.	4e/]	.	.	4g#/]	.	.
8BB/	8e/	.	.	.	.	.	.	.
8E/J	8B/J	.	8r	.	]	8r	.	]
8EE/L	8b/L	.	4r	.	.	4r	.	.
8BB/	8e/	.	.	.	.	.	.	.
8E/J)	8B/J)	.	8r	.	.	8r	.	.
!!LO:LB:g=original
=89	=89	=89	=89	=89	=89	=89	=89	=89
*xywh-#13:227,2514,3419,820	*xywh-#13:227,2514,3419,820	*	*xywh-#13:367,2290,3207,382	*	*	*xywh-#13:410,1949,3128,443	*	*
8EE/	8b\	.	4r	.	.	8r	.	.
!	!LO:TX:b:i:t=ad libitum	!	!LO:TX:a:i:t=ad libitum	!	!	!LO:TX:a:i:t=ad libitum	!	!
8r	8r	]	.	.	.	8ee\	Tę-	.
8r	8r	.	8r	.	.	8ee\	-dy,	.
4r	4r	.	8r	.	.	4r	.	.
.	.	.	8e/	Tę-	.	.	.	.
8r	8r	.	8e/	-dy,	.	8r	.	.
=90	=90	=90	=90	=90	=90	=90	=90	=90
!	!LO:TX:b:i:t=ritard.	!	!	!	!	!	!	!
2.r	2.r	.	4r	.	.	8r	.	.
.	.	.	.	.	.	8ee\	tę-	.
!	!	!	!LO:TX:a:i:t=ritard.	!	!	!LO:TX:a:i:t=ritard.	!	!
.	.	.	8r	.	.	8ee\	-dy,	.
.	.	.	8r	.	.	4r	.	.
.	.	.	8b/	tę-	.	.	.	.
.	.	.	8e/	-dy,	.	8r	.	.
=91	=91	=91	=91	=91	=91	=91	=91	=91
!	!LO:TX:a:B:t=a tempo	!LO:DY:b	!	!	!	!LO:TX:a:B:t=a tempo	!	!
8AA'\L	8r	p	2.r	.	.	8r	.	.
!	!	!	!	!	!	!	!	!LO:DY:a
8r	8cc#'/L 8ee/	.	.	.	.	8ee\	tę-	p
8E'\J 8A\	8c#'/J 8e/	.	.	.	.	8a/	-dy,	.
8AA'\L	4r	.	.	.	.	4b\	tę-	.
8r	.	.	.	.	.	.	.	.
8E'\J 8A\	8c#'/ 8e/	.	.	.	.	8cc#\	-dy	.
!!LO:LB:g=original
=92	=92	=92	=92	=92	=92	=92	=92	=92
*xywh-#13:300,3942,3365,704	*xywh-#13:300,3942,3365,704	*	*xywh-#13:337,3608,3274,400	*	*	*xywh-#13:385,3304,3182,406	*	*
8AA'\L	8r	.	8r	.	.	(2.dd\	le-	.
!	!	!	!	!	!LO:DY:a	!	!	!
8r	8dd'/L 8ee/	.	8b/	tę-	p	.	.	.
8E'\J 8B\	8d'/J 8e/	.	8e/	-dy,	.	.	.	.
8AA'\L	4r	.	4f#/	tę-	.	.	.	.
8r	.	.	.	.	.	.	.	.
8E'\J 8B\	8d'/ 8e/	.	8g#/	-dy	.	.	.	.
=93	=93	=93	=93	=93	=93	=93	=93	=93
8AA'\L	8r	.	4a/	le-	.	4cc#\)	.	.
8r	8cc#'/L 8ee/	.	.	.	.	.	.	.
8E'\J 8A\	8c#'/J 8e/	.	8cc#\	-ciał	.	8ee\	-ciał	.
8AA'\L	4r	.	(8ff#\L	pta-	.	(8aa\L	pta-	.
8r	.	.	8dd\	.	.	8ff#\	.	.
8F#'\J 8A\	8d'/ 8a/	.	8b\J)	.	.	8dd\J)	.	.
=94	=94	=94	=94	=94	=94	=94	=94	=94
8AA'\L	8r	.	4g#/	-szek.	.	4b\	-szek.	.
8r	8dd'/L 8ee/	.	.	.	.	.	.	.
8E'\J 8B\	(8d'/J 8e/	.	8r	.	.	8r	.	.
8AA'\L	8f#/L)	.	4r	.	.	4r	.	.
8r	8r	.	.	.	.	.	.	.
8E'\J 8B\	8d'/J 8g#/	.	8r	.	.	8r	.	.
!!LO:PB:g=original
=95	=95	=95	=95	=95	=95	=95	=95	=95
*xywh-#14:476,1211,3367,739	*xywh-#14:476,1211,3367,739	*	*xywh-#14:531,884,3252,405	*	*	*xywh-#14:591,588,3162,417	*	*
8AA'\L	8r	.	2.r	.	.	8r	.	.
8r	8cc#'/L 8ee/	.	.	.	.	8ee\	Na-	.
8E'\J 8A\	8c#'/J 8e/	.	.	.	.	8a/	-po-	.
8AA'\L	4r	.	.	.	.	4b\	-wiet-	.
8r	.	.	.	.	.	.	.	.
8E'\J 8A\	8c#'/ 8e/	.	.	.	.	8cc#\	-rzny	.
=96	=96	=96	=96	=96	=96	=96	=96	=96
8AA'\L	8r	.	8r	.	.	(2.dd\	kra-	.
8r	8dd'/L 8ee/	.	8b/	Na-	.	.	.	.
8E'\J 8B\	8d'/J 8e/	.	8e/	-po-	.	.	.	.
8AA'\L	4r	.	4f#/	-wiet-	.	.	.	.
8r	.	.	.	.	.	.	.	.
8E'\J 8B\	8d'/ 8e/	.	8g#/	-rzny	.	.	.	.
=97	=97	=97	=97	=97	=97	=97	=97	=97
!	!	!	!	!	!LO:DY:a	!	!	!
8AA'\L	8r	.	4a/	kra-	<	4cc#\)	.	.
8r	8cc#'/L 8ee/	.	.	.	.	.	.	.
8E'\J 8A\	8c#'/J 8e/	.	8g#/	-śny	.	8ee\	-śny	.
8AA'\L	8r	.	4.f#/	nu-	[	(8ee\L	nu-	.
8r	8f#'/L 8dd#X/	.	.	.	.	8dd#X\	.	.
8D#X'\J 8G#\	8B#X'/J 8g#/	.	.	.	.	8g#\J)	.	.
!!LO:LB:g=original
=98	=98	=98	=98	=98	=98	=98	=98	=98
*xywh-#14:470,2574,3349,684	*xywh-#14:470,2574,3349,684	*	*xywh-#14:573,2223,3204,411	*	*	*xywh-#14:555,1914,3192,448	*	*
8C#'\L	8r	.	4e/	-rek.	.	4cc#\	-rek.	.
8r	8ee'/L 8gg#/	.	.	.	.	.	.	.
8G#'\J 8c#\	8e'/J 8g#/	.	8r	.	.	8r	.	.
8C#'\L	4r	.	4r	.	.	[4.ee\	Chy-	.
8r	.	.	.	.	.	.	.	.
8G#'\J 8c#\	8e'/ 8cc#/	.	8r	.	.	.	.	.
=99	=99	=99	=99	=99	=99	=99	=99	=99
*	*^	*	*	*	*	*	*	*
*	*	*xywh-#14:470,2574,3349,684	*	*	*	*	*	*	*
4r	[2.ee/	8r	.	8r	.	.	2.ee\_	.	.
!	!	!	!	!LO:TX:a:i:t=leggiero	!	!	!	!	!
.	.	8e'\L	.	8e/	Chy-	.	.	.	.
8r	.	8f#'\J	.	8f#/	-żo	.	.	.	.
8EE'/L	.	8g#'\L	.	(8g#/L	bu-	.	.	.	.
8FF#'/	.	8a'\	.	8a/	.	.	.	.	.
8GG#'/J	.	8b'\J	.	8b/J)	.	.	.	.	.
=100	=100	=100	=100	=100	=100	=100	=100	=100	=100
8AA'/L	8ee/]	8cc#\	.	8a/	-jał	.	(8ee\L]	.	.
8C#'/	8r	2ryy	.	8r	.	.	8cc#\J)	.	.
8E'/J	8r	.	.	8r	.	.	8a/	-żo	.
8A'\L	8a'\ 8cc#\	.	.	4r	.	.	4ff#\	bu-	.
8B'\	8r	.	.	.	.	.	.	.	.
8c#'\J	8r	8ryy	.	8r	.	.	8ee\	-jał	.
!!LO:LB:g=original
=101	=101	=101	=101	=101	=101	=101	=101	=101	=101
*xywh-#14:476,3949,3380,629	*xywh-#14:476,3949,3380,629	*xywh-#14:476,3949,3380,629	*	*xywh-#14:531,3604,3228,363	*	*	*xywh-#14:543,3289,3210,393	*	*
8d\	[2.ee/	8r	.	8r	.	.	[2.ee\	śród	.
8r	.	8e'\L	.	8e/	śród	.	.	.	.
8r	.	8f#'\J	.	8f#/	i-	.	.	.	.
8EE'/L	.	8g#'\L	.	8g#/L	-gra-	.	.	.	.
8FF#'/	.	8a'\	.	8a/	.	.	.	.	.
8GG#'/J	.	8b'\J	.	8b/J	.	.	.	.	.
=102	=102	=102	=102	=102	=102	=102	=102	=102	=102
8AA'/L	8ee/]	8cc#\	.	8a/	-szek,	.	(8ee\L]	.	.
8C#'/	8r	2ryy	.	8r	.	.	8cc#\J)	.	.
8E'/J	8r	.	.	8r	.	.	8a/	i-	.
8A'\L	4r	.	.	4r	.	.	4ff#\	-gra-	.
8c#'\	.	.	.	.	.	.	.	.	.
8d'\J	8r	8ryy	.	8r	.	.	8ee\	-szek,	.
*	*v	*v	*	*	*	*	*	*	*
=103	=103	=103	=103	=103	=103	=103	=103	=103
8e'\L	8r	.	4cc#\	zro-	.	4ee\	zro-	.
8a'\	8cc#'\L 8ee\	.	.	.	.	.	.	.
8A'\J	8ccn'\J 8aa\	.	8ccn\	-nił	.	8aa\	-nił	.
8B'\L	8r	.	4b\	zro-	.	4dd#X\	zro-	.
8f#'\	8b'\L 8dd#X\	.	.	.	.	.	.	.
8D#X'\J	8a'\J 8ff#\	.	8a/	-nił	.	8ff#\	-nił	.
!!LO:PB:g=original
=104	=104	=104	=104	=104	=104	=104	=104	=104
*xywh-#15:236,1312,3321,677	*xywh-#15:236,1312,3321,677	*	*xywh-#15:266,925,3169,423	*	*	*xywh-#15:284,617,3121,435	*	*
!	!	!	!	!	!LO:DY:a	!	!	!
8E'\L	8r	.	(4g#/	kil-	<	(4b\	kil-	.
8B'\	8g#'/L 8b/	.	.	.	.	.	.	.
8AA#X'\J	8gn'/J 8ee/	.	8gn/	.	.	[8ee\	.	.
8BB'/L	8r	.	4f#/)	.	.	8ee\L]	.	.
8Dn'/	8f#'/L 8a/	.	.	.	.	8ddn\J)	.	.
8BB'/J	8fn'/J 8ccn/	.	8fn/	-ka	[[	8a/	-ka	.
=105	=105	=105	=105	=105	=105	=105	=105	=105
8E'\L	8r	.	(4.e/	pió-	.	([4.cc#\	pió-	.
8A'\	8a'/L 8cc#/	.	.	.	.	.	.	.
8B'\J	8e'/J 8ee/	.	.	.	.	.	.	.
8c#'\L	8r	.	4.e#X/)	.	.	4cc#\]	.	.
8G#'\	8g#'/L 8b/	.	.	.	.	.	.	.
8C#'\J	8e#X'/J 8cc#/	.	.	.	.	8b\)	.	.
=106	=106	=106	=106	=106	=106	=106	=106	=106
*	*^	*	*	*	*	*	*	*
*	*	*xywh-#15:236,1312,3321,677	*	*	*	*	*	*	*
8F#'/L	8r	2ryy	.	4f#/	-rek.	.	4a/	-rek.	.
8C#'/	8f#'/L 8a/	.	.	.	.	.	.	.	.
8FF#'/J	8c#'/J 8cc#/	.	.	8r	.	.	8r	.	.
!	!	!	!	!	!	!LO:DY:a	!	!	!LO:DY:a
8D'/L	8r	.	.	[4.ff#\	Zro-	sf	[4.aa\	Zro-	sf
8AA'/	[[<8a/L	[4f#\	.	.	.	.	.	.	.
8FF#'/J	[8dd/J	.	.	.	.	.	.	.	.
*	*v	*v	*	*	*	*	*	*	*
!!LO:LB:g=original
=107	=107	=107	=107	=107	=107	=107	=107	=107
*xywh-#15:248,2649,3248,695	*xywh-#15:248,2649,3248,695	*	*xywh-#15:242,2304,3212,399	*	*	*xywh-#15:254,1935,3169,459	*	*
!	!	!	!	!	!LO:DY:a	!	!	!LO:DY:a
8DD/	8f#/] 8a/]] 8dd/] 8ff#/	.	8ff#\]	.	>	8aa\]	.	>
8r	8r	.	8dd\	.	.	8ff#\	.	.
8r	8r	.	8b\	-nił	]	8dd\	-nił	]
!	!	!	!	!	!LO:DY:a	!	!	!LO:DY:a
4r	4r	.	4g#/	zro-	<	4b\	zro-	<
8r	8r	.	8gn/	-nił	.	8cc#\	-nił	.
=108	=108	=108	=108	=108	=108	=108	=108	=108
*	*^	*	*	*	*	*	*	*
*	*	*xywh-#15:248,2649,3248,695	*	*	*	*	*	*	*
8r	4r	2ryy	.	4.f#/	kil-	.	([4.ee\	kil-	.
8BBB'/L	.	.	.	.	.	.	.	.	.
8FF#'/J	8r	.	.	.	.	.	.	.	.
8BB'\L	8r	.	.	4.fn/	-ka	[	8ee\L]	.	[
8Fn'\	8a/L	4d\	.	.	.	.	8dd\J)	.	.
8B'\J	8dd/J	.	.	.	.	.	8a/	-ka	.
*	*v	*v	*	*	*	*	*	*	*
=109	=109	=109	=109	=109	=109	=109	=109	=109
!	!	!	!	!	!LO:DY:a	!	!	!LO:DY:a
4EE/	8r	.	(4e/	pió-	>	([4.cc#\	pió-	>
.	(8c#/L	.	.	.	.	.	.	.
8E\	8a/J	.	8d#X/	.	.	.	.	.
4EE/	8ee\)	.	4.dn/)	.	]]	4cc#\]	.	.
.	8r	.	.	.	.	.	.	.
8E\	8d/ 8g#/	.	.	.	.	8b\)	.	]]
!!LO:LB:g=original
=110	=110	=110	=110	=110	=110	=110	=110	=110
*xywh-#15:242,4022,3266,677	*xywh-#15:242,4022,3266,677	*	*xywh-#15:284,3666,3182,381	*	*	*xywh-#15:272,3333,3194,387	*	*
8AA'\L	8r	.	4c#/	-rek.	.	4a/	-rek.	.
8r	8cc#'/L 8ee/	.	.	.	.	.	.	.
8E'\J 8A\	8c#'/J 8e/	.	8r	.	.	8r	.	.
8AA'\L	8r	.	4r	.	.	4r	.	.
8r	8a'/L 8cc#/	.	.	.	.	.	.	.
8E'\J 8A\	8c#'/J 8e/	.	8r	.	.	8r	.	.
=111	=111	=111	=111	=111	=111	=111	=111	=111
8AA'\L	8r	.	2.r	.	.	2.r	.	.
8r	8b'/L 8dd/	.	.	.	.	.	.	.
8F#'\J 8B\	8d'/J 8f#/	.	.	.	.	.	.	.
8AA'\L	8r	.	.	.	.	.	.	.
8r	8g#'/L 8b/	.	.	.	.	.	.	.
8E'\J 8B\	8d'/J 8e/	.	.	.	.	.	.	.
=112	=112	=112	=112	=112	=112	=112	=112	=112
8AA'\L	8r	.	2.r	.	.	2.r	.	.
8r	8cc#'/L 8ee/	.	.	.	.	.	.	.
[8E\J [8A\	[8c#/J [<8e/	.	.	.	.	.	.	.
8AA\ 8E\] 8A\]	4.c#/_ 4.e/_ [4.a/	.	.	.	.	.	.	.
8r	.	.	.	.	.	.	.	.
(8EE/	.	.	.	.	.	.	.	.
=113	=113	=113	=113	=113	=113	=113	=113	=113
2.AA/)	2.c#/] 2.e/] 2.a/]	.	2.r	.	.	2.r	.	.
==	==	==	==	==	==	==	==	==
*-	*-	*-	*-	*-	*-	*-	*-	*-
!!!system-decoration: s1,s2[(s3,s4)]
!!!RDF**kern: > = above
!!!RDF**kern: < = below
!!!ENC: Filip Voros
!!!END: 2022-03-13
!!!ENC: Leszek Kubiak
!!!END: 2022-03-22
!!!ENC-iiif: Mateusz Mrugas
!!!END-iiif: 2022-08-31
!!!YEC: Copyright 2022 Narodowy Instytut Fryderyka Chopina (https://polishscores.org)
!!!YEM: License CC-BY-4.0 (https://creativecommons.org/licenses/by/4.0)
